src/sources/forus-platform/resources/_platform-common/assets/img/features/icons/email-connection/icon-step-1.svg

<svg width="24" height="25" viewBox="0 0 24 25" fill="none" xmlns="http://www.w3.org/2000/svg">
<path d="M21.4004 8.375C22.2004 9.175 22.2004 10.475 21.4004 11.175L18.6004 13.975L10.8004 6.175L13.6004 3.375C14.4004 2.575 15.7004 2.575 16.4004 3.375L18.2004 5.175L21.2004 2.175L22.6004 3.575L19.6004 6.575L21.4004 8.375ZM15.6004 14.175L14.2004 12.775L11.4004 15.575L9.30039 13.475L12.1004 10.675L10.7004 9.275L7.90039 12.075L6.40039 10.675L3.60039 13.475C2.80039 14.275 2.80039 15.575 3.60039 16.275L5.40039 18.075L1.40039 22.075L2.80039 23.475L6.80039 19.475L8.60039 21.275C9.40039 22.075 10.7004 22.075 11.4004 21.275L14.2004 18.475L12.8004 17.075L15.6004 14.175Z" fill="white"/>
</svg>

<svg width="24" height="25" fill="none" xmlns="http://www.w3.org/2000/svg"><path d="M21.4 8.375c.8.8.8 2.1 0 2.8l-2.8 2.8-7.8-7.8 2.8-2.8c.8-.8 2.1-.8 2.8 0l1.8 1.8 3-3 1.4 1.4-3 3 1.8 1.8Zm-5.8 5.8-1.4-1.4-2.8 2.8-2.1-2.1 2.8-2.8-1.4-1.4-2.8 2.8-1.5-1.4-2.8 2.8c-.8.8-.8 2.1 0 2.8l1.8 1.8-4 4 1.4 1.4 4-4 1.8 1.8c.8.8 2.1.8 2.8 0l2.8-2.8-1.4-1.4 2.8-2.9Z" fill="#fff"/></svg>
